X: 21441
T: MEIN SCHATZERL
C: Aubade
R: waltz
B: K\"ohler's Violin Repository, v.2, 1885 p.144 #1
F: http://www.archive.org/details/klersviolinrepos02rugg
Z: 2012 John Chambers <jc:trillian.mit.edu>
M: 3/4
L: 1/8
Q: "Allegretto."
K: F
u(AB) |\
(c2A2)(Aa) | f3z(uAd) | (dE) EccE | F3z(uEF) |\
G2G2A=B | c2c2de | (gf)edc=B | c3zz2 |
(vAB)cdc2 | (cf)Adc2 | (cB) (BA) (Bd) | (dc)cB Az |\
(vFG)AB(cd) | (cB)BAG2- | G2 z2 (uAB) | (c2A)z (uAa) |
f3z(Ad) | (dE) Ec cE | F3zz2 | vE2E2FD |\
E2E2Gc | =B2G2DF | E4(CD) | E2E2FD |
E2E2Gc | (=B2g)zuF2 | E2(F2G2) | (AB)cd cz |\
(vcf)Adc2 | (cB) BA (Bd) | (dc)cB Az | (vFG)AB(cd) |
(cB)BA Gz | (FG)AB(cd) | (cB)BAG2- | G2z2(uAB) |\
(c2A2) (Aa) | f3z(uAd) | (dE)"^rit.  .  .  ."Ec cE | F3z |]

%%sep 2 1 500

